packages/foundations/assets/icons/functional/images/buildings/house_20_filled.svg

<svg width="20" height="20" viewBox="0 0 20 20" fill="none" xmlns="http://www.w3.org/2000/svg">
<g clip-path="url(#clip0_2202_1188)">
<path fill-rule="evenodd" clip-rule="evenodd" d="M7.03394 18H5.00394C4.51794 18 3.99994 17.57 3.99994 16.985V9.922L3.71694 10.234C3.62624 10.3283 3.51713 10.403 3.39637 10.4534C3.27561 10.5038 3.14578 10.5289 3.01494 10.527C2.42894 10.527 1.99994 10.078 1.99994 9.493C1.99994 9.278 2.07794 9.063 2.23394 8.907L8.10694 3.015C8.53594 2.585 9.00494 2 9.99994 2C10.9949 2 11.4629 2.586 11.8929 3.015L17.7069 8.81C17.8016 8.90461 17.8763 9.01727 17.9267 9.14129C17.977 9.26531 18.0019 9.39817 17.9999 9.532C17.9999 10.098 17.5319 10.527 16.9659 10.527C16.7319 10.527 16.5129 10.472 16.3609 10.312L15.9999 9.922V16.985C15.9999 17.532 15.4829 18 14.9949 18H13.0049C12.4779 18 11.9999 17.649 11.9999 17.122V12H7.99994V17.005C7.99994 17.532 7.65894 18 7.03394 18Z" fill="#1A1C1F"/>
</g>
<defs>
<clipPath id="clip0_2202_1188">
<rect width="20" height="20" fill="white"/>
</clipPath>
</defs>
</svg>

<svg xmlns="http://www.w3.org/2000/svg" width="20" height="20" fill="none"><g clip-path="url(#a)"><path fill="#1A1C1F" fill-rule="evenodd" d="M7.034 18h-2.03C4.518 18 4 17.57 4 16.985V9.922l-.283.312a.96.96 0 0 1-.702.293C2.429 10.527 2 10.078 2 9.493c0-.215.078-.43.234-.586l5.873-5.892C8.536 2.585 9.005 2 10 2s1.463.586 1.893 1.015l5.814 5.795a1 1 0 0 1 .293.722c0 .566-.468.995-1.034.995-.234 0-.453-.055-.605-.215L16 9.922v7.063c0 .547-.517 1.015-1.005 1.015h-1.99c-.527 0-1.005-.351-1.005-.878V12H8v5.005c0 .527-.341.995-.966.995" clip-rule="evenodd"/></g><defs><clipPath id="a"><path fill="#fff" d="M0 0h20v20H0z"/></clipPath></defs></svg>
